assets/Ringed planet/Flat/ringed_planet_flat.svg

<svg width="32" height="32" viewBox="0 0 32 32" fill="none" xmlns="http://www.w3.org/2000/svg">
<path d="M25.0543 16.0049C25.0543 20.9905 21.0127 25.0321 16.0272 25.0321C15.4795 25.0321 14.9432 24.9833 14.4223 24.8899C12.7942 23.3191 11 22.5 9.16857 21.8746C7.81664 20.2963 7 18.246 7 16.0049C7 15.7706 7.00893 15.5384 7.02646 15.3085C8.64421 12.3033 12.072 8.41509 15.202 7.01499C15.4738 6.99036 15.749 6.97778 16.0272 6.97778C18.104 6.97778 20.0169 7.67909 21.5422 8.85781C22.1791 10.4469 23.6528 13.1668 24.9067 14.3701C25.0037 14.9003 25.0543 15.4467 25.0543 16.0049Z" fill="#FF944C"/>
<path d="M11.9566 11.909C10.1565 13.8302 8.18413 14.8676 7.02747 15.2948C7.36823 10.9161 10.8331 7.41415 15.1953 7.01562C14.9431 7.88368 14.2543 9.45672 11.9566 11.909Z" fill="#FBB8AB"/>
<path d="M20.5945 20.2953C22.4991 18.15 23.8732 16.1385 24.8972 14.3196C24.4792 12.1059 23.253 10.1779 21.5369 8.85376C20.8998 10.3952 19.1838 13.1182 16.0249 16.3399C13.5278 18.8866 11.2273 20.6368 9.15588 21.8598C10.488 23.4216 12.3431 24.5237 14.4503 24.8949C16.8055 23.5828 19.0654 22.0176 20.5945 20.2953Z" fill="#FBB8AB"/>
<path d="M27.2311 4.87943C26.7785 4.35257 26.1703 4.17651 25.6474 4.16152C25.1511 4.14729 24.6568 4.27059 24.2223 4.42556C23.3472 4.73773 22.3628 5.30929 21.4108 5.94785C20.6864 6.4337 19.9383 6.98749 19.2134 7.55619C20.1067 7.89323 20.9324 8.36788 21.6649 8.95427C22.0671 8.65501 22.4682 8.36926 22.859 8.10712C23.7574 7.50459 24.5284 7.07685 25.0958 6.87442C25.1189 6.8662 25.141 6.85856 25.1623 6.85146C25.1348 6.96051 25.0917 7.09836 25.0249 7.27028C24.745 7.99064 24.1842 8.93173 23.3925 10.0252C21.8225 12.1935 19.5426 14.6937 17.4834 16.7773C15.4872 18.7971 12.7695 21.2061 10.387 22.9462C9.18838 23.8217 8.12677 24.4891 7.31297 24.8619C7.13948 24.9414 6.98932 25.0018 6.86146 25.0467C6.98646 24.7067 7.22312 24.2534 7.58551 23.6798C7.97816 23.0583 8.46199 22.3811 8.98781 21.6568C8.39359 20.9176 7.91339 20.0829 7.57392 19.1793C7.42972 19.3787 7.28352 19.5797 7.13637 19.7819L7.06515 19.8798C6.47948 20.6848 5.87786 21.5149 5.38745 22.2911C4.91033 23.0463 4.46326 23.8643 4.26825 24.6412C4.06721 25.4422 4.07374 26.5317 5.00523 27.2952C5.59498 27.7786 6.30343 27.7986 6.80788 27.7301C7.33126 27.6591 7.87612 27.4638 8.39583 27.2257C9.44482 26.7451 10.6708 25.9586 11.9205 25.0458C14.4348 23.2095 17.2571 20.705 19.3326 18.6049C21.4254 16.4874 23.8132 13.8775 25.4985 11.5499C26.3344 10.3954 27.0481 9.24212 27.4484 8.21203C27.8035 7.29813 28.1264 5.92151 27.2311 4.87943ZM6.75827 25.4523C6.75918 25.4596 6.75905 25.4638 6.75876 25.4641C6.75846 25.4644 6.75801 25.4607 6.75827 25.4523Z" fill="#FCD53F"/>
</svg>

<svg xmlns="http://www.w3.org/2000/svg" width="32" height="32" fill="none"><path fill="#FF944C" d="M25.054 16.005a9.027 9.027 0 0 1-10.632 8.885C12.794 23.32 11 22.5 9.17 21.875a8.992 8.992 0 0 1-2.143-6.566c1.618-3.006 5.046-6.894 8.176-8.294a8.988 8.988 0 0 1 6.34 1.843c.637 1.589 2.11 4.309 3.365 5.512.097.53.147 1.077.147 1.635Z"/><path fill="#FBB8AB" d="M11.957 11.909c-1.8 1.921-3.773 2.959-4.93 3.386a9.03 9.03 0 0 1 8.168-8.28c-.252.869-.94 2.442-3.238 4.894ZM20.595 20.295c1.904-2.145 3.278-4.157 4.302-5.975a9.025 9.025 0 0 0-3.36-5.466c-.637 1.541-2.353 4.264-5.512 7.486-2.497 2.547-4.798 4.297-6.87 5.52a9.017 9.017 0 0 0 5.295 3.035c2.355-1.312 4.615-2.877 6.145-4.6Z"/><path fill="#FCD53F" d="M27.231 4.88c-.453-.527-1.06-.703-1.584-.718-.496-.015-.99.109-1.425.264-.875.312-1.86.883-2.811 1.522a37.142 37.142 0 0 0-2.198 1.608 9.016 9.016 0 0 1 2.452 1.398c.402-.299.803-.585 1.194-.847.898-.602 1.67-1.03 2.237-1.233a3.5 3.5 0 0 1 .066-.023c-.027.11-.07.247-.137.42-.28.72-.84 1.66-1.633 2.754-1.57 2.168-3.85 4.669-5.909 6.752-1.996 2.02-4.713 4.43-7.096 6.17-1.199.875-2.26 1.542-3.074 1.915-.174.08-.324.14-.452.185.125-.34.362-.794.725-1.367.392-.622.876-1.299 1.402-2.023a9.016 9.016 0 0 1-1.414-2.478c-.144.2-.29.4-.438.603l-.07.098c-.587.805-1.188 1.635-1.679 2.411-.477.755-.924 1.573-1.119 2.35-.2.801-.194 1.89.737 2.654.59.484 1.298.504 1.803.435.523-.07 1.068-.266 1.588-.504 1.049-.48 2.275-1.267 3.524-2.18 2.515-1.837 5.337-4.341 7.413-6.441 2.092-2.118 4.48-4.728 6.166-7.055.835-1.155 1.55-2.308 1.95-3.338.354-.914.677-2.29-.218-3.333ZM6.758 25.451v.012-.012Z"/></svg>
